X:12030
T:Legacy, The
T:William and Nancy
R:Jig
C:Trad
O:Scotland
Z:Paul Hardy's Session Tunebook 2015 (see www.paulhardy.net). Creative Commons cc by-nc-sa licenced.
M:6/8
L:1/8
Q:3/8=100
K:G
D|"G"G2G GAB|d2d dBG|"Em"G2A BAG|"D"E2F "G"G2D|
"G"G2G GDB,|d2d dBG|"Em"G2A BAG|"D"E2F "G"G2:|
|:D|"G"GBd "Em"g2g|"D"fed "Em"edB|"G"GBd g2g|"D"fed "Em"e2f|
"G"g2g "D"fed|"C"e2e "G"dBG|"Em"G2A BAG|"D7"E2F "G"G2:|

